X:231
T: Yang diao
N: C1716
O: China, nan Yunnan
S: Hanzu minge gailun, 224]
R: Wuge, Huadeng, Yunnan huadeng, Mengjiangn diao]
M: 2/4
L: 1/16
K: F
F2F2F2D2 | f4d2c2 | c2d2c2A2 | G3FG4
c2c2dfdc | G2A2AGF2 | DFC2FGD2 | C8
C2D2F4 | G4A2c2 | G2AcGFFC | D3CD4
c2c2dfc2 | G2A2AGF2 | DFC2c2A2 | G3AGFD2 | C8
A2Acc2F2 | G3AG4 | A2Acc2F2 | G3AG4
F2FGA2GA | c8 | D2F2F2D2 | C8

